logo-ayr.svg

<?xml version="1.0" encoding="UTF-8" standalone="no"?>
<svg width="78px" height="30px" viewBox="0 0 78 30" version="1.1" xmlns="http://www.w3.org/2000/svg" xmlns:xlink="http://www.w3.org/1999/xlink" xmlns:sketch="http://www.bohemiancoding.com/sketch/ns">
    <title>Slice 1</title>
    <description>Created with Sketch (http://www.bohemiancoding.com/sketch)</description>
    <defs></defs>
    <g id="Page-1" stroke="none" stroke-width="1" fill-rule="evenodd" sketch:type="MSPage">
        <path d="M26,30 L13.9052081,0 L12.0885018,0 L0,30 L2.05172869,30 L6.65896895,18.5677949 L15.1815343,18.5677949 L14.5519486,17.000984 L7.28855459,17.000984 L12.1056567,5.05133585 L22.1578693,30 L26,30 L26,30 Z M35.2764582,30 L39,30 L39,15.8929702 L29.1729752,0 L25,0 L35.2764582,16.5629773 L35.2764582,30 L35.2764582,30 Z M42.0980647,15 L51,0 L48.79384,0 L41,13.2035402 L41.7322398,14.3998124 L42.0980647,15 L42.0980647,15 Z M75.6137006,8.17699214 C75.6137006,5.55675595 74.5110267,3.41150393 72.4278213,1.97369892 C70.5549721,0.682300786 67.9973342,0 65.0302932,0 L57,0 L57,30 L60.5426933,30 L60.5426933,18.1997169 L75.1138218,30 L78,30 L60.5828419,15.9600268 L60.5828419,0.819766792 L63.9202682,0.819766792 C69.2854835,0.819766792 71.7871395,3.1572477 71.7871395,8.17699214 C71.7871395,10.6731736 71.1866063,12.4686138 69.9482188,13.6650151 C68.6617659,14.9077972 66.6916552,15.5113065 63.9202682,15.5113065 L63.1065514,15.5113065 L64.1741659,16.3316321 L65.0302932,16.3316321 C67.9990306,16.3316321 70.5577995,15.6532429 72.4278213,14.3691093 C74.5110267,12.9374511 75.6137006,10.7961107 75.6137006,8.17699214 L75.6137006,8.17699214 Z" id="Imported-Layers" fill="#000000" sketch:type="MSShapeGroup"></path>
    </g>
</svg>

<svg width="78" height="30" viewBox="0 0 78 30" xmlns="http://www.w3.org/2000/svg" xmlns:sketch="http://www.bohemiancoding.com/sketch/ns"><title>Slice 1</title><path d="M26 30l-12.095-30h-1.817l-12.089 30h2.052l4.607-11.432h8.523l-.63-1.567h-7.263l4.817-11.95 10.052 24.949h3.842zm9.276 0h3.724v-14.107l-9.827-15.893h-4.173l10.276 16.563v13.437zm6.822-15l8.902-15h-2.206l-7.794 13.204.732 1.196.366.6zm33.516-6.823c0-2.62-1.103-4.765-3.186-6.203-1.873-1.291-4.43-1.974-7.398-1.974h-8.03v30h3.543v-11.8l14.571 11.8h2.886l-17.417-14.04v-15.14h3.337c5.365 0 7.867 2.337 7.867 7.357 0 2.496-.601 4.292-1.839 5.488-1.286 1.243-3.257 1.846-6.028 1.846h-.814l1.068.82h.856c2.969 0 5.528-.678 7.398-1.963 2.083-1.432 3.186-3.573 3.186-6.192z" sketch:type="MSShapeGroup" fill-rule="evenodd"/></svg>
